X:68
T:Frontenac County Reel
R:reel
C:Bruce Osborne  --  Apr. 1967
Z:abc by bosborne@kos.net
M:2/4
L:1/8
K:A
A|A,C/E/ F/E/C/E/|AA/B/ c/A/F/A/|EE/F/ AA/B/|c/A/B/c/ B/A/E/C/|\
A,C/E/ F/E/C/E/|AA/B/ c/A/F/A/|EG/B/ c/B/G/B/|e/a/e/c/ A:|
|:(3e/f/g/|ag/a/ (3f/a/f/ e/c/|a/f/e/c/ AA|EG/B/ c/B/G/B/|A/B/c/f/ e (3e/f/g/|\
ag/a/ (3f/a/f/ e/c/|a/f/e/c/ AA|EG/B/ c/B/G/B/|e/a/e/c/ A:|
